swiss/communes/5708.svg

<?xml version="1.0" encoding="UTF-8" standalone="no"?>
<svg
   xmlns:dc="http://purl.org/dc/elements/1.1/"
   xmlns:cc="http://creativecommons.org/ns#"
   xmlns:rdf="http://www.w3.org/1999/02/22-rdf-syntax-ns#"
   xmlns:svg="http://www.w3.org/2000/svg"
   xmlns="http://www.w3.org/2000/svg"
   xmlns:xlink="http://www.w3.org/1999/xlink"
   xmlns:sodipodi="http://sodipodi.sourceforge.net/DTD/sodipodi-0.dtd"
   xmlns:inkscape="http://www.inkscape.org/namespaces/inkscape"
   height="763"
   width="603"
   version="1.0"
   id="svg20"
   sodipodi:version="0.32"
   inkscape:version="0.46"
   sodipodi:docname="Chavannes-des-Bois-coat_of_arms.svg"
   sodipodi:docbase="C:\Documents and Settings\Steve\Bureau\Blason Villages Suisse pour Wikipédia (par Delta-9)"
   inkscape:output_extension="org.inkscape.output.svg.inkscape">
  <metadata
     id="metadata31">
    <rdf:RDF>
      <cc:Work
         rdf:about="">
        <dc:format>image/svg+xml</dc:format>
        <dc:type
           rdf:resource="http://purl.org/dc/dcmitype/StillImage" />
        <dc:date>07-AUG-2006</dc:date>
        <dc:creator>
          <cc:Agent>
            <dc:title>Jérôme BLUM (wagner51)</dc:title>
          </cc:Agent>
        </dc:creator>
        <cc:license
           rdf:resource="http://creativecommons.org/licenses/GPL/2.0/" />
        <dc:coverage />
        <dc:description>Gabarit pour le Projet:Blasons de WIkipédia</dc:description>
        <dc:subject>
          <rdf:Bag>
            <rdf:li>blason suisse modèle gabarit projet blasons</rdf:li>
          </rdf:Bag>
        </dc:subject>
        <dc:language>fr</dc:language>
        <dc:title>Gabrit d'un blason suisse</dc:title>
      </cc:Work>
      <cc:License
         rdf:about="http://creativecommons.org/licenses/GPL/2.0/">
        <cc:permits
           rdf:resource="http://web.resource.org/cc/Reproduction" />
        <cc:permits
           rdf:resource="http://web.resource.org/cc/Distribution" />
        <cc:requires
           rdf:resource="http://web.resource.org/cc/Notice" />
        <cc:permits
           rdf:resource="http://web.resource.org/cc/DerivativeWorks" />
        <cc:requires
           rdf:resource="http://web.resource.org/cc/ShareAlike" />
        <cc:requires
           rdf:resource="http://web.resource.org/cc/SourceCode" />
      </cc:License>
    </rdf:RDF>
  </metadata>
  <defs
     id="defs29"><inkscape:perspective
   sodipodi:type="inkscape:persp3d"
   inkscape:vp_x="0 : 381.5 : 1"
   inkscape:vp_y="0 : 1000 : 0"
   inkscape:vp_z="603 : 381.5 : 1"
   inkscape:persp3d-origin="301.5 : 254.33333 : 1"
   id="perspective28" />
<linearGradient
   id="linearGradient2893">
  <stop
     style="stop-color:#ffffff;stop-opacity:0.3137255;"
     offset="0"
     id="stop2895" />
  <stop
     id="stop2897"
     offset="0.19"
     style="stop-color:#ffffff;stop-opacity:0.25098041;" />
  <stop
     style="stop-color:#6b6b6b;stop-opacity:0.1254902;"
     offset="0.60000002"
     id="stop2901" />
  <stop
     style="stop-color:#000000;stop-opacity:0.1254902;"
     offset="1"
     id="stop2899" />
</linearGradient>
<linearGradient
   id="linearGradient2955">
  <stop
     style="stop-color:white;stop-opacity:0;"
     offset="0"
     id="stop2965" />
  <stop
     style="stop-color:black;stop-opacity:0.64583331;"
     offset="1"
     id="stop2959" />
</linearGradient>
<radialGradient
   inkscape:collect="always"
   xlink:href="#linearGradient2893"
   id="radialGradient3236"
   gradientUnits="userSpaceOnUse"
   gradientTransform="matrix(1.215027,1.531577e-24,1.464684e-23,1.266667,-839.1924,-490.4894)"
   cx="858.04236"
   cy="579.93323"
   fx="858.04236"
   fy="579.93323"
   r="300" />
<inkscape:perspective
   id="perspective2633"
   inkscape:persp3d-origin="297.63751 : 280.63 : 1"
   inkscape:vp_z="595.27502 : 420.94501 : 1"
   inkscape:vp_y="0 : 1000 : 0"
   inkscape:vp_x="0 : 420.94501 : 1"
   sodipodi:type="inkscape:persp3d" />

	
	
	

	
	

		
		
	
		
	
		
		
		
	
			
			
			
			
		
			
			
			
		</defs>
  <sodipodi:namedview
     inkscape:window-height="888"
     inkscape:window-width="1199"
     inkscape:pageshadow="2"
     inkscape:pageopacity="0.0"
     guidetolerance="10.0"
     gridtolerance="10.0"
     objecttolerance="10.0"
     borderopacity="1.0"
     bordercolor="#666666"
     pagecolor="#ffffff"
     id="base"
     inkscape:zoom="0.8520258"
     inkscape:cx="324.65566"
     inkscape:cy="380.76899"
     inkscape:window-x="61"
     inkscape:window-y="42"
     inkscape:current-layer="layer2"
     showgrid="false"
     showguides="true"
     inkscape:guide-bbox="true">
    <sodipodi:guide
       orientation="horizontal"
       position="761.5"
       id="guide1885" />
    <sodipodi:guide
       orientation="vertical"
       position="1.5"
       id="guide1887" />
    <sodipodi:guide
       orientation="horizontal"
       position="1.5"
       id="guide1889" />
    <sodipodi:guide
       orientation="vertical"
       position="601.5"
       id="guide1891" />
    <sodipodi:guide
       orientation="vertical"
       position="301.50081"
       id="guide1893" />
  </sodipodi:namedview>
  <desc
     id="desc22">Coat of Arms of Canton of Freiburg (Fribourg)</desc>
  <g
     inkscape:groupmode="layer"
     id="layer1"
     inkscape:label="Fond écu"
     style="opacity:1"
     sodipodi:insensitive="true">
    <path
       d="M 1.500001,1.5 L 1.500001,460.369 C 1.500001,626.68 135.814,761.5 301.5,761.5 C 467.188,761.5 601.5,626.68 601.5,460.369 L 601.5,1.5 L 1.500001,1.5 z"
       id="path1899_2_"
       style="opacity:1;fill:#ffffff" />
    <path
       d="M 1.500001,367 L 1.500001,460.369 C 1.500001,626.68 135.814,761.5 301.5,761.5 C 467.188,761.5 601.5,626.68 601.5,460.369 L 601.5,367 L 1.500001,367 L 1.500001,367 z"
       id="path2472"
       style="opacity:1;fill:#5ab532" />
  </g>
  <g
     inkscape:groupmode="layer"
     id="layer2"
     inkscape:label="Meubles"
     style="opacity:1;display:inline"
     sodipodi:insensitive="true">
    <g
       id="g2755">
      <path
         id="path2600"
         d="M 598.309,504.321 C 562.205,499.963 556.602,482.067 510.676,482.067 C 458.383,482.067 458.383,505.275 406.089,505.275 C 353.793,505.275 353.793,482.067 301.499,482.067 C 249.206,482.067 249.206,505.275 196.914,505.275 C 144.62,505.275 144.619,482.067 92.328001,482.067 C 46.400001,482.067 40.797001,499.963 4.691001,504.322 C 9.096001,534.558 17.971001,563.335 30.633001,589.955 C 47.675001,583.184 60.030001,574.335 92.327001,574.335 C 144.619,574.335 144.619,597.544 196.913,597.544 C 249.206,597.544 249.206,574.335 301.498,574.335 C 353.792,574.335 353.792,597.544 406.088,597.544 C 458.382,597.544 458.382,574.335 510.675,574.335 C 542.968,574.335 555.325,583.184 572.365,589.954 C 585.028,563.334 593.902,534.557 598.309,504.321 z"
         style="fill:#ffffff" />
      <path
         id="path2602"
         d="M 30.633001,589.955 C 47.675001,583.184 60.030001,574.335 92.327001,574.335 C 144.619,574.335 144.619,597.544 196.913,597.544 C 249.206,597.544 249.206,574.335 301.498,574.335 C 353.792,574.335 353.792,597.544 406.088,597.544 C 458.382,597.544 458.382,574.335 510.675,574.335 C 542.968,574.335 555.325,583.184 572.365,589.954"
         style="fill:none;stroke:#000000;stroke-width:3" />
      <path
         id="path2604"
         d="M 598.309,504.321 C 562.205,499.963 556.602,482.067 510.676,482.067 C 458.383,482.067 458.383,505.275 406.089,505.275 C 353.793,505.275 353.793,482.067 301.499,482.067 C 249.206,482.067 249.206,505.275 196.914,505.275 C 144.62,505.275 144.619,482.067 92.328001,482.067 C 46.400001,482.067 40.797001,499.963 4.691001,504.322"
         style="fill:none;stroke:#000000;stroke-width:3" />
    </g>
    <line
       style="fill:none;stroke:#000000;stroke-width:3"
       id="line2484"
       x1="1.5000007"
       y1="367.00003"
       x2="601.49896"
       y2="367.00003" />
    <g
       id="g2746">
      <rect
         style="stroke:#000000;stroke-width:3;stroke-miterlimit:14"
         x="133.99001"
         y="188.371"
         stroke-miterlimit="14"
         width="335.01901"
         height="161.362"
         id="rect2612" />
      <polygon
         transform="translate(-3.7999e-2,-4.5e-2)"
         style="stroke:#000000;stroke-width:3;stroke-miterlimit:14"
         stroke-miterlimit="14"
         points="496.817,188.416 301.537,95.111 208.892,139.377 208.892,102.063 201.392,102.063 201.392,121.639 192.61,121.639 192.61,102.063 184.377,102.063 184.377,151.09 106.257,188.416 496.817,188.416 "
         id="polygon2614" />
      <path
         style="stroke:#000000;stroke-width:3;stroke-miterlimit:14"
         stroke-miterlimit="14"
         d="M 215.806,102.018 C 215.806,100.3 214.413,98.908 212.696,98.908 L 180.497,98.908 C 178.779,98.908 177.387,100.3 177.387,102.018 L 177.387,102.018 C 177.387,103.736 178.78,105.128 180.497,105.128 L 212.696,105.128 C 214.414,105.129 215.806,103.737 215.806,102.018 L 215.806,102.018 z"
         id="path2616" />
      <rect
         style="fill:#ffffff;stroke:#000000;stroke-width:3"
         x="266.81198"
         y="225.692"
         width="69.375999"
         height="116.173"
         id="rect2620" />
      <path
         style="fill:#ffffff;stroke:#000000;stroke-width:3"
         d="M 258.322,221.025 C 258.322,223.603 260.412,225.692 262.99,225.692 L 340.008,225.692 C 342.587,225.692 344.675,223.602 344.675,221.025 L 344.675,218.285 C 344.675,215.707 342.587,213.618 340.008,213.618 L 262.99,213.618 C 260.412,213.618 258.322,215.707 258.322,218.285 L 258.322,221.025 z"
         id="path2622" />
      <rect
         style="fill:#ffffff;stroke:#000000;stroke-width:3"
         x="389.42596"
         y="213.618"
         width="40.613998"
         height="54.883999"
         id="rect2624" />
      <rect
         style="fill:#ffffff;stroke:#000000;stroke-width:3"
         x="172.95801"
         y="213.618"
         width="40.615002"
         height="54.883999"
         id="rect2626" />
    </g>
  </g>
  <g
     inkscape:groupmode="layer"
     id="layer3"
     inkscape:label="Reflet final"
     style="display:inline"
     sodipodi:insensitive="true">
    <path
       style="fill:url(#radialGradient3236);fill-opacity:1"
       d="M 1.5,1.5 L 1.5,460.3679 C 1.5,626.67854 135.81454,761.5 301.49993,761.5 C 467.1854,761.5 601.5,626.67854 601.5,460.3679 L 601.5,1.5 L 1.5,1.5 z "
       id="path2346" />
  </g>
  <g
     inkscape:groupmode="layer"
     id="layer4"
     inkscape:label="Contour final"
     style="display:inline"
     sodipodi:insensitive="true">
    <path
       style="fill:none;fill-opacity:1;stroke:#000000;stroke-width:3;stroke-miterlimit:4;stroke-dasharray:none;stroke-opacity:1"
       d="M 1.5,1.5 L 1.5,460.36794 C 1.5,626.67854 135.81454,761.5 301.49993,761.5 C 467.1854,761.5 601.5,626.67854 601.5,460.36794 L 601.5,1.5 L 1.5,1.5 z "
       id="path3239" />
  </g>
</svg>

<svg xmlns="http://www.w3.org/2000/svg" xmlns:xlink="http://www.w3.org/1999/xlink" height="763" width="603" version="1.0"><defs><radialGradient xlink:href="#a" id="b" gradientUnits="userSpaceOnUse" gradientTransform="matrix(1.21503 0 0 1.26667 -839.192 -490.49)" cx="858.042" cy="579.933" fx="858.042" fy="579.933" r="300"/><linearGradient id="a"><stop style="stop-color:#fff;stop-opacity:.3137255" offset="0"/><stop offset=".19" style="stop-color:#fff;stop-opacity:.25098041"/><stop style="stop-color:#6b6b6b;stop-opacity:.1254902" offset=".6"/><stop style="stop-color:#000;stop-opacity:.1254902" offset="1"/></linearGradient></defs><g style="opacity:1"><path d="M1.5 1.5v458.869C1.5 626.68 135.814 761.5 301.5 761.5c165.688 0 300-134.82 300-301.131V1.5H1.5z" style="opacity:1;fill:#fff"/><path d="M1.5 367v93.369C1.5 626.68 135.814 761.5 301.5 761.5c165.688 0 300-134.82 300-301.131V367H1.5z" style="opacity:1;fill:#5ab532"/></g><g style="opacity:1;display:inline"><path d="M598.309 504.321c-36.104-4.358-41.707-22.254-87.633-22.254-52.293 0-52.293 23.208-104.587 23.208-52.296 0-52.296-23.208-104.59-23.208-52.293 0-52.293 23.208-104.585 23.208-52.294 0-52.295-23.208-104.586-23.208-45.928 0-51.531 17.896-87.637 22.255a299.805 299.805 0 0 0 25.942 85.633c17.042-6.771 29.397-15.62 61.694-15.62 52.292 0 52.292 23.209 104.586 23.209 52.293 0 52.293-23.209 104.585-23.209 52.294 0 52.294 23.209 104.59 23.209 52.294 0 52.294-23.209 104.587-23.209 32.293 0 44.65 8.849 61.69 15.619a299.84 299.84 0 0 0 25.944-85.633z" style="fill:#fff"/><path d="M30.633 589.955c17.042-6.771 29.397-15.62 61.694-15.62 52.292 0 52.292 23.209 104.586 23.209 52.293 0 52.293-23.209 104.585-23.209 52.294 0 52.294 23.209 104.59 23.209 52.294 0 52.294-23.209 104.587-23.209 32.293 0 44.65 8.849 61.69 15.619M598.309 504.321c-36.104-4.358-41.707-22.254-87.633-22.254-52.293 0-52.293 23.208-104.587 23.208-52.296 0-52.296-23.208-104.59-23.208-52.293 0-52.293 23.208-104.585 23.208-52.294 0-52.295-23.208-104.586-23.208-45.928 0-51.531 17.896-87.637 22.255M1.5 367h599.999" style="fill:none;stroke:#000;stroke-width:3"/><g><path style="stroke:#000;stroke-width:3;stroke-miterlimit:14" d="M133.99 188.371h335.019v161.362H133.99z"/><path transform="translate(-.038 -.045)" style="stroke:#000;stroke-width:3;stroke-miterlimit:14" d="m496.817 188.416-195.28-93.305-92.645 44.266v-37.314h-7.5v19.576h-8.782v-19.576h-8.233v49.027l-78.12 37.326h390.56z"/><path style="stroke:#000;stroke-width:3;stroke-miterlimit:14" d="M215.806 102.018a3.11 3.11 0 0 0-3.11-3.11h-32.199a3.11 3.11 0 0 0 0 6.22h32.199a3.108 3.108 0 0 0 3.11-3.11z"/><path style="fill:#fff;stroke:#000;stroke-width:3" d="M266.812 225.692h69.376v116.173h-69.376z"/><path style="fill:#fff;stroke:#000;stroke-width:3" d="M258.322 221.025a4.667 4.667 0 0 0 4.668 4.667h77.018a4.666 4.666 0 0 0 4.667-4.667v-2.74a4.666 4.666 0 0 0-4.667-4.667H262.99a4.667 4.667 0 0 0-4.668 4.667v2.74zM389.426 213.618h40.614v54.884h-40.614zM172.958 213.618h40.615v54.884h-40.615z"/></g></g><g style="display:inline"><path style="fill:url(#b);fill-opacity:1" d="M1.5 1.5v458.868c0 166.31 134.315 301.132 300 301.132s300-134.821 300-301.132V1.5H1.5z"/></g><g style="display:inline"><path style="fill:none;fill-opacity:1;stroke:#000;stroke-width:3;stroke-miterlimit:4;stroke-dasharray:none;stroke-opacity:1" d="M1.5 1.5v458.868c0 166.31 134.315 301.132 300 301.132s300-134.821 300-301.132V1.5H1.5z"/></g></svg>
